!!!SOCIAL_FUNCTION:	deer dance songs
!!!PDT:	1932
!!!OTL: No_92_The_Hunt_(a).krn
!!!REG: Southwest
!!!LANG: Non-Tone
!!!LING_GROUP: Yuman-Cochimi
**kern
*staff1
=1-
=
*clefF4
*k[f#c#g#d#]
*M2/4
4r
16E\LL
16E\
16E\
16A\JJ
=2
(4A\
8G#\L)
8G#\J
=3||
*M3/4
2F#\
8r
8A\
=4||
*M2/4
(4A\
8G#\L)
8G#\J
=5||
*M3/4
8.F#;\L
16F#\Jk
8.F#\L
16E\Jk
8.F#\L
16E\Jk
=6
2D#\
4r
=7||
*M2/4
20A\LL
20G#\
20F#\
20G#\
20G#\JJ
8G#\L
16F#\L
16F#\JJ
=8
4E\
8r
8F#\
=9
12G#\L
12F#\
12E\J
12D#\L
12D#\
12F#\J
=10
8.F#\L
16F#\Jk
8G#\L
16D#\L
16D#\JJ
=11
2E\
=12:|!
2r
=13!|:
8r
8E\
8C#/L
8A/J
=14
4A\
8G#\L
8G#\J
=15||
*M3/4
2F#\
8r
8A\
=16||
*M2/4
(4A\
8G#\L)
8G#\J
=17
4.F#;\
8F#\
=18
8.F#\L
16E\Jk
8.F#\L
16E\Jk
=19
4D#\
4r
=20
4r
16A\LL
16G#\
16F#\
16G#\JJ
=21
(4G#\
8F#\L)
8F#\J
=22
4.E\
8F#\
=23
12G#\L
12F#\
12E\J
12D#\L
12D#\
12F#\J
=24
8.F#\L
16F#\Jk
8G#\L
16D#\L
16D#\JJ
=25
2E\
==:|!
*-
